; generated by Slic3r 1.2.9 on 2017-05-09 at 15:56:01

; external perimeters extrusion width = 0.50mm
; perimeters extrusion width = 0.85mm
; infill extrusion width = 1.02mm
; solid infill extrusion width = 0.85mm
; top infill extrusion width = 0.85mm
; support material extrusion width = 0.50mm

M107
M190 S50 ; set bed temperature
M104 S200 ; set temperature

M109 S200 ; wait for temperature to be reached
G21 ; set units to millimeters
G90 ; use absolute coordinates
M82 ; use absolute distances for extrusion
G92 E0
G1 Z0.200 F9000.000
G1 E-2.00000 F2400.00000
G92 E0
G1 X101.142 Y100.892 F9000.000
G1 E2.00000 F2400.00000
G1 X112.824 Y89.210 E2.49053 F1800.000
G1 X113.288 Y88.605 E2.51316
G1 X113.594 Y87.867 E2.53690
G1 X113.698 Y87.074 E2.56063
G1 X113.594 Y86.282 E2.58436
G1 X113.288 Y85.543 E2.60810
G1 X112.824 Y84.938 E2.63073
G1 X42.062 Y14.176 E5.60203
G1 X41.457 Y13.712 E5.62467
G1 X40.718 Y13.406 E5.64840
G1 X39.926 Y13.302 E5.67214
G1 X39.133 Y13.406 E5.69587
G1 X38.395 Y13.712 E5.71960
G1 X37.790 Y14.176 E5.74224
G1 X26.108 Y25.858 E6.23277
G1 X19.825 Y19.575 E6.49660
G1 X31.471 Y7.928 E6.98563
G1 X32.354 Y7.129 E7.02099
G1 X33.285 Y6.438 E7.05542
G1 X34.303 Y5.828 E7.09064
G1 X35.355 Y5.331 E7.12519
G1 X36.461 Y4.935 E7.16008
G1 X37.594 Y4.651 E7.19475
G1 X38.755 Y4.479 E7.22962
G1 X39.926 Y4.421 E7.26441
G1 X41.094 Y4.479 E7.29914
G1 X42.256 Y4.651 E7.33401 F1800.000
G1 X43.393 Y4.935 E7.36880
G1 X44.496 Y5.330 E7.40360
G1 X45.555 Y5.831 E7.43840
G1 X46.561 Y6.434 E7.47320
G1 X47.502 Y7.132 E7.50799
G1 X48.380 Y7.928 E7.54320
G1 X119.072 Y78.620 E10.51151
G1 X119.868 Y79.498 E10.54672
G1 X120.566 Y80.439 E10.58151
G1 X121.169 Y81.445 E10.61631
G1 X121.670 Y82.504 E10.65111
G1 X122.065 Y83.607 E10.68590
G1 X122.349 Y84.744 E10.72070
G1 X122.521 Y85.904 E10.75550
G1 X122.579 Y87.074 E10.79029
G1 X122.521 Y88.245 E10.82509
G1 X122.349 Y89.404 E10.85989
G1 X122.065 Y90.541 E10.89469
G1 X121.670 Y91.644 E10.92948
G1 X121.169 Y92.704 E10.96428
G1 X120.566 Y93.709 E10.99908
G1 X119.868 Y94.650 E11.03387
G1 X119.072 Y95.529 E11.06908
G1 X107.425 Y107.175 E11.55811
G1 X101.195 Y100.945 E11.81972
G1 X100.943 Y101.198 F9000.000
G1 X100.637 Y100.892 E11.83255 F1800.000
G1 X112.555 Y88.974 E12.33298
G1 X112.976 Y88.425 E12.35353
G1 X113.246 Y87.773 E12.37447
G1 X113.338 Y87.074 E12.39541
G1 X113.246 Y86.375 E12.41635
G1 X112.976 Y85.723 E12.43729
G1 X112.555 Y85.174 E12.45784
G1 X41.826 Y14.445 E15.42775
G1 X41.277 Y14.024 E15.44830
G1 X40.625 Y13.754 E15.46924
G1 X39.926 Y13.662 E15.49018
G1 X39.227 Y13.754 E15.51112
G1 X38.575 Y14.024 E15.53206
G1 X38.026 Y14.445 E15.55261
G1 X26.108 Y26.363 E16.05304
G1 X19.320 Y19.575 E16.33808
G1 X31.225 Y7.670 E16.83798
G1 X32.127 Y6.852 E16.87411
G1 X33.087 Y6.141 E16.90959
G1 X34.134 Y5.513 E16.94585
G1 X35.218 Y5.000 E16.98144
G1 X36.357 Y4.593 E17.01737
G1 X37.524 Y4.300 E17.05309
G1 X38.720 Y4.123 E17.08899
G1 X39.926 Y4.064 E17.12483
G1 X41.129 Y4.123 E17.16059
G1 X42.325 Y4.300 E17.19651 F1800.000
G1 X43.496 Y4.593 E17.23235
G1 X44.633 Y5.000 E17.26818
G1 X45.724 Y5.516 E17.30402
G1 X46.759 Y6.137 E17.33986
G1 X47.729 Y6.856 E17.37570
G1 X48.627 Y7.670 E17.41168
G1 X119.330 Y78.373 E20.38052
G1 X120.144 Y79.271 E20.41651
G1 X120.863 Y80.241 E20.45234
G1 X121.484 Y81.276 E20.48818
G1 X122.000 Y82.367 E20.52402
G1 X122.407 Y83.504 E20.55986
G1 X122.700 Y84.675 E20.59570
G1 X122.877 Y85.869 E20.63154
G1 X122.936 Y87.074 E20.66738
G1 X122.877 Y88.280 E20.70322
G1 X122.700 Y89.474 E20.73905
G1 X122.407 Y90.645 E20.77489
G1 X122.000 Y91.781 E20.81073
G1 X121.484 Y92.872 E20.84657
G1 X120.863 Y93.907 E20.88241
G1 X120.144 Y94.877 E20.91825
G1 X119.330 Y95.775 E20.95423
G1 X107.425 Y107.680 E21.45413
G1 X100.996 Y101.251 E21.72411
G1 X101.054 Y100.780 F9000.000
G1 X107.918 Y106.465 F9000.000
G1 X106.933 Y106.465 E21.75336 F1800.000
G1 X106.576 Y106.108 E21.76836
G1 X108.275 Y106.108 E21.81882
G1 X108.632 Y105.750 E21.83382
G1 X106.219 Y105.750 E21.90550
G1 X105.861 Y105.393 E21.92050
G1 X108.989 Y105.393 E22.01339
G1 X109.346 Y105.036 E22.02839
G1 X105.504 Y105.036 E22.14250
G1 X105.147 Y104.679 E22.15750
G1 X109.704 Y104.679 E22.29283
G1 X110.061 Y104.322 E22.30783
G1 X104.790 Y104.322 E22.46436
G1 X104.433 Y103.965 E22.47936
G1 X110.418 Y103.965 E22.65712
G1 X110.775 Y103.607 E22.67212
G1 X104.076 Y103.607 E22.87109
G1 X103.718 Y103.250 E22.88609
G1 X111.132 Y103.250 E23.10627
G1 X111.489 Y102.893 E23.12127
G1 X103.361 Y102.893 E23.36267
G1 X103.004 Y102.536 E23.37767
G1 X111.847 Y102.536 E23.64028
G1 X112.204 Y102.179 E23.65528
G1 X102.647 Y102.179 E23.93911
G1 X102.290 Y101.822 E23.95411
G1 X112.561 Y101.822 E24.25915
G1 X112.918 Y101.464 E24.27415
G1 X101.933 Y101.464 E24.60041
G1 X101.575 Y101.107 E24.61541
G1 X113.275 Y101.107 E24.96288
G1 X113.632 Y100.750 E24.97789
G1 X101.502 Y100.750 E25.33814
G1 X101.859 Y100.393 E25.35314
G1 X113.990 Y100.393 E25.71340
G1 X114.347 Y100.036 E25.72840
G1 X102.216 Y100.036 E26.08866
G1 X102.574 Y99.679 E26.10366
G1 X114.704 Y99.679 E26.46392
G1 X115.061 Y99.321 E26.47892
G1 X102.931 Y99.321 E26.83918
G1 X103.288 Y98.964 E26.85418
G1 X115.418 Y98.964 E27.21443
G1 X115.775 Y98.607 E27.22943
G1 X103.645 Y98.607 E27.58969
G1 X104.002 Y98.250 E27.60469
G1 X116.133 Y98.250 E27.96495
G1 X116.490 Y97.893 E27.97995
G1 X104.359 Y97.893 E28.34021
G1 X104.717 Y97.536 E28.35521
G1 X116.847 Y97.536 E28.71547
G1 X117.204 Y97.178 E28.73047
G1 X105.074 Y97.178 E29.09072
G1 X105.431 Y96.821 E29.10573
G1 X117.561 Y96.821 E29.46598
G1 X117.918 Y96.464 E29.48098
G1 X105.788 Y96.464 E29.84124
G1 X106.145 Y96.107 E29.85624
G1 X118.276 Y96.107 E30.21650
G1 X118.633 Y95.750 E30.23150
G1 X106.502 Y95.750 E30.59176
G1 X106.860 Y95.393 E30.60676
G1 X118.990 Y95.393 E30.96701
G1 X119.316 Y95.035 E30.98137
G1 X107.217 Y95.035 E31.34070
G1 X107.574 Y94.678 E31.35570
G1 X119.639 Y94.678 E31.71403
G1 X119.933 Y94.321 E31.72776
G1 X107.931 Y94.321 E32.08420
G1 X108.288 Y93.964 E32.09921
G1 X120.198 Y93.964 E32.45291
G1 X120.463 Y93.607 E32.46612
G1 X108.645 Y93.607 E32.81708
G1 X109.003 Y93.249 E32.83208
G1 X120.681 Y93.249 E33.17890
G1 X120.895 Y92.892 E33.19127
G1 X109.360 Y92.892 E33.53384
G1 X109.717 Y92.535 E33.54884
G1 X121.101 Y92.535 E33.88694
G1 X121.270 Y92.178 E33.89867
G1 X110.074 Y92.178 E34.23118
G1 X110.431 Y91.821 E34.24618
G1 X121.439 Y91.821 E34.57309
G1 X121.597 Y91.464 E34.58470
G1 X110.788 Y91.464 E34.90570
G1 X111.146 Y91.106 E34.92071
G1 X121.725 Y91.106 E35.23490
G1 X121.853 Y90.749 E35.24617
G1 X111.503 Y90.749 E35.55355
G1 X111.860 Y90.392 E35.56856
G1 X121.972 Y90.392 E35.86887
G1 X122.061 Y90.035 E35.87980
G1 X112.217 Y90.035 E36.17216
G1 X112.574 Y89.678 E36.18717
G1 X122.151 Y89.678 E36.47158
G1 X122.236 Y89.321 E36.48248
G1 X112.922 Y89.321 E36.75911
G1 X113.196 Y88.963 E36.77248
G1 X122.289 Y88.963 E37.04255
G1 X122.342 Y88.606 E37.05327
G1 X113.429 Y88.606 E37.31797
G1 X113.577 Y88.249 E37.32945
G1 X122.395 Y88.249 E37.59133
G1 X122.416 Y87.892 E37.60196
G1 X113.716 Y87.892 E37.86034
G1 X113.763 Y87.535 E37.87104
G1 X122.433 Y87.535 E38.12854
G1 X122.436 Y87.178 E38.13915
G1 X113.810 Y87.178 E38.39533
G1 X113.790 Y86.820 E38.40596
G1 X122.436 Y86.820 E38.66273
G1 X122.426 Y86.463 E38.67334
G1 X113.743 Y86.463 E38.93121
G1 X113.663 Y86.106 E38.94208
G1 X122.408 Y86.106 E39.20179
G1 X122.373 Y85.749 E39.21245
G1 X113.515 Y85.749 E39.47552
G1 X113.355 Y85.392 E39.48715
G1 X122.320 Y85.392 E39.75341
G1 X122.267 Y85.035 E39.76413
G1 X113.081 Y85.035 E40.03695
G1 X112.781 Y84.677 E40.05080
G1 X122.203 Y84.677 E40.33060
G1 X122.113 Y84.320 E40.34153
G1 X112.424 Y84.320 E40.62929
G1 X112.067 Y83.963 E40.64429
G1 X122.024 Y83.963 E40.94000
G1 X121.927 Y83.606 E40.95099
G1 X111.710 Y83.606 E41.25442
G1 X111.353 Y83.249 E41.26942
G1 X121.799 Y83.249 E41.57967
G1 X121.671 Y82.892 E41.59094
G1 X110.995 Y82.892 E41.90800
G1 X110.638 Y82.534 E41.92300
G1 X121.537 Y82.534 E42.24668
G1 X121.368 Y82.177 E42.25841
G1 X110.281 Y82.177 E42.58768
G1 X109.924 Y81.820 E42.60268
G1 X121.199 Y81.820 E42.93754
G1 X121.019 Y81.463 E42.94942
G1 X109.567 Y81.463 E43.28953
G1 X109.210 Y81.106 E43.30453
G1 X120.805 Y81.106 E43.64889
G1 X120.591 Y80.749 E43.66125
G1 X108.852 Y80.749 E44.00986
G1 X108.495 Y80.391 E44.02486
G1 X120.351 Y80.391 E44.37698
G1 X120.087 Y80.034 E44.39019
G1 X108.138 Y80.034 E44.74504
G1 X107.781 Y79.677 E44.76004
G1 X119.822 Y79.677 E45.11764
G1 X119.503 Y79.320 E45.13185
G1 X107.424 Y79.320 E45.49060
G1 X107.067 Y78.963 E45.50560
G1 X119.180 Y78.963 E45.86534
G1 X118.840 Y78.606 E45.87998
G1 X106.709 Y78.606 E46.24024
G1 X106.352 Y78.248 E46.25524
G1 X118.483 Y78.248 E46.61550
G1 X118.125 Y77.891 E46.63050
G1 X105.995 Y77.891 E46.99076
G1 X105.638 Y77.534 E47.00576
G1 X117.768 Y77.534 E47.36602
G1 X117.411 Y77.177 E47.38102
G1 X105.281 Y77.177 E47.74127
G1 X104.924 Y76.820 E47.75628
G1 X117.054 Y76.820 E48.11653
G1 X116.697 Y76.463 E48.13153
G1 X104.566 Y76.463 E48.49179
G1 X104.209 Y76.105 E48.50679
G1 X116.340 Y76.105 E48.86705
G1 X115.982 Y75.748 E48.88205
G1 X103.852 Y75.748 E49.24231
G1 X103.495 Y75.391 E49.25731
G1 X115.625 Y75.391 E49.61757
G1 X115.268 Y75.034 E49.63257
G1 X103.138 Y75.034 E49.99282
G1 X102.781 Y74.677 E50.00783
G1 X114.911 Y74.677 E50.36808
G1 X114.554 Y74.320 E50.38308
G1 X102.423 Y74.320 E50.74334
G1 X102.066 Y73.962 E50.75834
G1 X114.197 Y73.962 E51.11860
G1 X113.839 Y73.605 E51.13360
G1 X101.709 Y73.605 E51.49386
G1 X101.352 Y73.248 E51.50886
G1 X113.482 Y73.248 E51.86912
G1 X113.125 Y72.891 E51.88412
G1 X100.995 Y72.891 E52.24437
G1 X100.638 Y72.534 E52.25938
G1 X112.768 Y72.534 E52.61963
G1 X112.411 Y72.176 E52.63463
G1 X100.280 Y72.176 E52.99489
G1 X99.923 Y71.819 E53.00989
G1 X112.054 Y71.819 E53.37015
G1 X111.696 Y71.462 E53.38515
G1 X99.566 Y71.462 E53.74541
G1 X99.209 Y71.105 E53.76041
G1 X111.339 Y71.105 E54.12067
G1 X110.982 Y70.748 E54.13567
G1 X98.852 Y70.748 E54.49592
G1 X98.495 Y70.391 E54.51093
G1 X110.625 Y70.391 E54.87118
G1 X110.268 Y70.033 E54.88618
G1 X98.137 Y70.033 E55.24644
G1 X97.780 Y69.676 E55.26144
G1 X109.911 Y69.676 E55.62170
G1 X109.553 Y69.319 E55.63670
G1 X97.423 Y69.319 E55.99696
G1 X97.066 Y68.962 E56.01196
G1 X109.196 Y68.962 E56.37222
G1 X108.839 Y68.605 E56.38722
G1 X96.709 Y68.605 E56.74748
G1 X96.351 Y68.248 E56.76248
G1 X108.482 Y68.248 E57.12273
G1 X108.125 Y67.890 E57.13773
G1 X95.994 Y67.890 E57.49799
G1 X95.637 Y67.533 E57.51299
G1 X107.768 Y67.533 E57.87325
G1 X107.410 Y67.176 E57.88825
G1 X95.280 Y67.176 E58.24851
G1 X94.923 Y66.819 E58.26351
G1 X107.053 Y66.819 E58.62377
G1 X106.696 Y66.462 E58.63877
G1 X94.566 Y66.462 E58.99903
G1 X94.208 Y66.105 E59.01403
G1 X106.339 Y66.105 E59.37428
G1 X105.982 Y65.747 E59.38929
G1 X93.851 Y65.747 E59.74954
G1 X93.494 Y65.390 E59.76454
G1 X105.624 Y65.390 E60.12480
G1 X105.267 Y65.033 E60.13980
G1 X93.137 Y65.033 E60.50006
G1 X92.780 Y64.676 E60.51506
G1 X104.910 Y64.676 E60.87532
G1 X104.553 Y64.319 E60.89032
G1 X92.423 Y64.319 E61.25058
G1 X92.065 Y63.962 E61.26558
G1 X104.196 Y63.962 E61.62583
G1 X103.839 Y63.604 E61.64084
G1 X91.708 Y63.604 E62.00109
G1 X91.351 Y63.247 E62.01609
G1 X103.481 Y63.247 E62.37635
G1 X103.124 Y62.890 E62.39135
G1 X90.994 Y62.890 E62.75161
G1 X90.637 Y62.533 E62.76661
G1 X102.767 Y62.533 E63.12687
G1 X102.410 Y62.176 E63.14187
G1 X90.280 Y62.176 E63.50213
G1 X89.922 Y61.819 E63.51713
G1 X102.053 Y61.819 E63.87738
G1 X101.696 Y61.461 E63.89239
G1 X89.565 Y61.461 E64.25264
G1 X89.208 Y61.104 E64.26764
G1 X101.338 Y61.104 E64.62790
G1 X100.981 Y60.747 E64.64290
G1 X88.851 Y60.747 E65.00316
G1 X88.494 Y60.390 E65.01816
G1 X100.624 Y60.390 E65.37842
G1 X100.267 Y60.033 E65.39342
G1 X88.137 Y60.033 E65.75368
G1 X87.779 Y59.676 E65.76868
G1 X99.910 Y59.676 E66.12893
G1 X99.553 Y59.318 E66.14394
G1 X87.422 Y59.318 E66.50419
G1 X87.065 Y58.961 E66.51919
G1 X99.195 Y58.961 E66.87945
G1 X98.838 Y58.604 E66.89445
G1 X86.708 Y58.604 E67.25471
G1 X86.351 Y58.247 E67.26971
G1 X98.481 Y58.247 E67.62997
G1 X98.124 Y57.890 E67.64497
G1 X85.994 Y57.890 E68.00523
G1 X85.636 Y57.533 E68.02023
G1 X97.767 Y57.533 E68.38049
G1 X97.410 Y57.175 E68.39549
G1 X85.279 Y57.175 E68.75574
G1 X84.922 Y56.818 E68.77074
G1 X97.052 Y56.818 E69.13100
G1 X96.695 Y56.461 E69.14600
G1 X84.565 Y56.461 E69.50626
G1 X84.208 Y56.104 E69.52126
G1 X96.338 Y56.104 E69.88152
G1 X95.981 Y55.747 E69.89652
G1 X83.851 Y55.747 E70.25678
G1 X83.493 Y55.390 E70.27178
G1 X95.624 Y55.390 E70.63204
G1 X95.267 Y55.032 E70.64704
G1 X83.136 Y55.032 E71.00729
G1 X82.779 Y54.675 E71.02230
G1 X94.909 Y54.675 E71.38255
G1 X94.552 Y54.318 E71.39755
G1 X82.422 Y54.318 E71.75781
G1 X82.065 Y53.961 E71.77281
G1 X94.195 Y53.961 E72.13307
G1 X93.838 Y53.604 E72.14807
G1 X81.708 Y53.604 E72.50833
G1 X81.350 Y53.246 E72.52333
G1 X93.481 Y53.246 E72.88359
G1 X93.124 Y52.889 E72.89859
G1 X80.993 Y52.889 E73.25884
G1 X80.636 Y52.532 E73.27385
G1 X92.766 Y52.532 E73.63410
G1 X92.409 Y52.175 E73.64910
G1 X80.279 Y52.175 E74.00936
G1 X79.922 Y51.818 E74.02436
G1 X92.052 Y51.818 E74.38462
G1 X91.695 Y51.461 E74.39962
G1 X79.565 Y51.461 E74.75988
G1 X79.207 Y51.103 E74.77488
G1 X91.338 Y51.103 E75.13514
G1 X90.981 Y50.746 E75.15014
G1 X78.850 Y50.746 E75.51039
G1 X78.493 Y50.389 E75.52540
G1 X90.623 Y50.389 E75.88565
G1 X90.266 Y50.032 E75.90065
G1 X78.136 Y50.032 E76.26091
G1 X77.779 Y49.675 E76.27591
G1 X89.909 Y49.675 E76.63617
G1 X89.552 Y49.318 E76.65117
G1 X77.421 Y49.318 E77.01143
G1 X77.064 Y48.960 E77.02643
G1 X89.195 Y48.960 E77.38669
G1 X88.838 Y48.603 E77.40169
G1 X76.707 Y48.603 E77.76194
G1 X76.350 Y48.246 E77.77695
G1 X88.480 Y48.246 E78.13720
G1 X88.123 Y47.889 E78.15220
G1 X75.993 Y47.889 E78.51246
G1 X75.636 Y47.532 E78.52746
G1 X87.766 Y47.532 E78.88772
G1 X87.409 Y47.175 E78.90272
G1 X75.278 Y47.175 E79.26298
G1 X74.921 Y46.817 E79.27798
G1 X87.052 Y46.817 E79.63824
G1 X86.695 Y46.460 E79.65324
G1 X74.564 Y46.460 E80.01350
G1 X74.207 Y46.103 E80.02850
G1 X86.337 Y46.103 E80.38875
G1 X85.980 Y45.746 E80.40375
G1 X73.850 Y45.746 E80.76401
G1 X73.493 Y45.389 E80.77901
G1 X85.623 Y45.389 E81.13927
G1 X85.266 Y45.032 E81.15427
G1 X73.135 Y45.032 E81.51453
G1 X72.778 Y44.674 E81.52953
G1 X84.909 Y44.674 E81.88979
G1 X84.551 Y44.317 E81.90479
G1 X72.421 Y44.317 E82.26505
G1 X72.064 Y43.960 E82.28005
G1 X84.194 Y43.960 E82.64030
G1 X83.837 Y43.603 E82.65531
G1 X71.707 Y43.603 E83.01556
G1 X71.350 Y43.246 E83.03056
G1 X83.480 Y43.246 E83.39082
G1 X83.123 Y42.889 E83.40582
G1 X70.992 Y42.889 E83.76608
G1 X70.635 Y42.531 E83.78108
G1 X82.766 Y42.531 E84.14134
G1 X82.408 Y42.174 E84.15634
G1 X70.278 Y42.174 E84.51660
G1 X69.921 Y41.817 E84.53160
G1 X82.051 Y41.817 E84.89185
G1 X81.694 Y41.460 E84.90686
G1 X69.564 Y41.460 E85.26711
G1 X69.207 Y41.103 E85.28211
G1 X81.337 Y41.103 E85.64237
G1 X80.980 Y40.746 E85.65737
G1 X68.849 Y40.746 E86.01763
G1 X68.492 Y40.388 E86.03263
G1 X80.623 Y40.388 E86.39289
G1 X80.265 Y40.031 E86.40789
G1 X68.135 Y40.031 E86.76815
G1 X67.778 Y39.674 E86.78315
G1 X79.908 Y39.674 E87.14340
G1 X79.551 Y39.317 E87.15841
G1 X67.421 Y39.317 E87.51866
G1 X67.064 Y38.960 E87.53366
G1 X79.194 Y38.960 E87.89392
G1 X78.837 Y38.603 E87.90892
G1 X66.706 Y38.603 E88.26918
G1 X66.349 Y38.245 E88.28418
G1 X78.480 Y38.245 E88.64444
G1 X78.122 Y37.888 E88.65944
G1 X65.992 Y37.888 E89.01970
G1 X65.635 Y37.531 E89.03470
G1 X77.765 Y37.531 E89.39495
G1 X77.408 Y37.174 E89.40996
G1 X65.278 Y37.174 E89.77021
G1 X64.921 Y36.817 E89.78521
G1 X77.051 Y36.817 E90.14547
G1 X76.694 Y36.460 E90.16047
G1 X64.563 Y36.460 E90.52073
G1 X64.206 Y36.102 E90.53573
G1 X76.337 Y36.102 E90.89599
G1 X75.979 Y35.745 E90.91099
G1 X63.849 Y35.745 E91.27125
G1 X63.492 Y35.388 E91.28625
G1 X75.622 Y35.388 E91.64650
G1 X75.265 Y35.031 E91.66151
G1 X63.135 Y35.031 E92.02176
G1 X62.778 Y34.674 E92.03676
G1 X74.908 Y34.674 E92.39702
G1 X74.551 Y34.317 E92.41202
G1 X62.420 Y34.317 E92.77228
G1 X62.063 Y33.959 E92.78728
G1 X74.194 Y33.959 E93.14754
G1 X73.836 Y33.602 E93.16254
G1 X61.706 Y33.602 E93.52280
G1 X61.349 Y33.245 E93.53780
G1 X73.479 Y33.245 E93.89806
