; generated by Slic3r 1.2.9 on 2017-05-09 at 20:01:09

; external perimeters extrusion width = 0.50mm
; perimeters extrusion width = 0.85mm
; infill extrusion width = 1.02mm
; solid infill extrusion width = 0.85mm
; top infill extrusion width = 0.85mm
; support material extrusion width = 0.50mm

M107
M190 S50 ; set bed temperature
M104 S200 ; set temperature
G29
M109 S200 ; wait for temperature to be reached
G21 ; set units to millimeters
G90 ; use absolute coordinates
M82 ; use absolute distances for extrusion
G92 E0
G1 Z0.200 F9000.000
G1 E-2.00000 F2400.00000
G92 E0
G1 X185.293 Y65.866 F9000.000
G1 E2.00000 F2400.00000
G1 X185.293 Y40.370 E2.75702 F1800.000
G1 X185.237 Y39.070 E2.79567
G1 X185.065 Y37.767 E2.83467
G1 X184.781 Y36.485 E2.87367
G1 X184.386 Y35.232 E2.91267
G1 X183.883 Y34.018 E2.95168
G1 X183.277 Y32.853 E2.99068
G1 X182.569 Y31.743 E3.02976
G1 X181.771 Y30.703 E3.06868
G1 X180.884 Y29.735 E3.10769
G1 X179.915 Y28.847 E3.14669
G1 X178.873 Y28.048 E3.18569
G1 X177.765 Y27.342 E3.22469
G1 X176.600 Y26.735 E3.26370
G1 X175.384 Y26.232 E3.30278
G1 X174.134 Y25.838 E3.34170
G1 X172.851 Y25.553 E3.38071
G1 X171.549 Y25.382 E3.41971
G1 X170.249 Y25.325 E3.45835
G1 X70.224 Y25.325 E6.42820
G1 X68.924 Y25.382 E6.46684
G1 X67.622 Y25.553 E6.50585
G1 X66.339 Y25.838 E6.54485
G1 X65.086 Y26.233 E6.58385
G1 X63.873 Y26.735 E6.62285
G1 X62.708 Y27.342 E6.66186
G1 X61.600 Y28.048 E6.70086
G1 X60.557 Y28.847 E6.73986
G1 X59.589 Y29.735 E6.77887
G1 X58.700 Y30.705 E6.81795
G1 X57.902 Y31.745 E6.85687
G1 X57.196 Y32.853 E6.89587
G1 X56.590 Y34.018 E6.93487
G1 X56.087 Y35.232 E6.97388
G1 X55.692 Y36.485 E7.01288
G1 X55.407 Y37.767 E7.05188
G1 X55.236 Y39.070 E7.09089
G1 X55.179 Y40.370 E7.12953
G1 X55.179 Y65.866 E7.88655
G1 X39.293 Y65.866 E8.35822
G1 X39.293 Y40.891 E9.09977
G1 X39.346 Y39.283 E9.14753
G1 X39.503 Y37.692 E9.19502
G1 X39.763 Y36.114 E9.24251
G1 X40.127 Y34.556 E9.29001
G1 X40.590 Y33.028 E9.33741
G1 X41.156 Y31.525 E9.38511
G1 X41.815 Y30.071 E9.43249
G1 X42.568 Y28.661 E9.47997
G1 X43.410 Y27.307 E9.52730
G1 X44.345 Y26.002 E9.57495
G1 X45.359 Y24.766 E9.62244
G1 X46.453 Y23.599 E9.66993
G1 X47.620 Y22.505 E9.71742
G1 X48.857 Y21.490 E9.76491
G1 X50.154 Y20.561 E9.81230
G1 X51.515 Y19.714 E9.85989
G1 X52.926 Y18.960 E9.90738
G1 X54.383 Y18.300 E9.95487
G1 X55.880 Y17.737 E10.00236
G1 X57.407 Y17.273 E10.04975
G1 X58.968 Y16.909 E10.09734
G1 X60.546 Y16.649 E10.14483
G1 X62.138 Y16.492 E10.19232
G1 X63.745 Y16.439 E10.24009
G1 X170.227 Y16.439 E13.40167
G1 X171.799 Y16.491 E13.44836
G1 X173.362 Y16.644 E13.49498 F1800.000
G1 X174.907 Y16.900 E13.54149
G1 X176.433 Y17.255 E13.58801
G1 X177.932 Y17.710 E13.63453
G1 X179.399 Y18.262 E13.68105
G1 X180.826 Y18.909 E13.72757
G1 X182.208 Y19.647 E13.77409
G1 X183.538 Y20.475 E13.82061
G1 X184.812 Y21.387 E13.86713
G1 X186.023 Y22.381 E13.91365
G1 X187.166 Y23.452 E13.96017
G1 X188.237 Y24.596 E14.00669
G1 X189.231 Y25.807 E14.05321
G1 X190.144 Y27.080 E14.09972
G1 X190.971 Y28.411 E14.14624
G1 X191.710 Y29.793 E14.19276
G1 X192.356 Y31.220 E14.23928
G1 X192.908 Y32.686 E14.28580
G1 X193.363 Y34.185 E14.33232
G1 X193.719 Y35.711 E14.37884
G1 X193.974 Y37.257 E14.42536
G1 X194.128 Y38.816 E14.47188
G1 X194.179 Y40.391 E14.51867
G1 X194.179 Y65.866 E15.27506
G1 X185.368 Y65.866 E15.53667
G1 X185.368 Y66.224 F9000.000
G1 X184.936 Y66.224 E15.54949 F1800.000
G1 X184.936 Y40.378 E16.31689
G1 X184.881 Y39.101 E16.35484
G1 X184.713 Y37.829 E16.39291
G1 X184.436 Y36.577 E16.43099
G1 X184.050 Y35.354 E16.46907
G1 X183.559 Y34.170 E16.50714
G1 X182.967 Y33.032 E16.54522
G1 X182.276 Y31.948 E16.58338
G1 X181.497 Y30.933 E16.62137
G1 X180.631 Y29.988 E16.65945
G1 X179.685 Y29.121 E16.69753
G1 X178.668 Y28.340 E16.73561
G1 X177.586 Y27.651 E16.77368
G1 X176.449 Y27.059 E16.81176
G1 X175.262 Y26.568 E16.84992
G1 X174.041 Y26.183 E16.88791
G1 X172.789 Y25.905 E16.92599
G1 X171.518 Y25.738 E16.96407
G1 X170.241 Y25.682 E17.00201
G1 X70.232 Y25.682 E19.97140
G1 X68.955 Y25.738 E20.00935
G1 X67.684 Y25.905 E20.04743
G1 X66.432 Y26.183 E20.08550
G1 X65.209 Y26.568 E20.12358
G1 X64.024 Y27.059 E20.16166
G1 X62.886 Y27.651 E20.19973
G1 X61.805 Y28.340 E20.23781
G1 X60.787 Y29.121 E20.27589
G1 X59.842 Y29.988 E20.31397
G1 X58.974 Y30.935 E20.35212
G1 X58.195 Y31.950 E20.39012
G1 X57.506 Y33.032 E20.42820
G1 X56.913 Y34.170 E20.46627
G1 X56.423 Y35.354 E20.50435
G1 X56.037 Y36.577 E20.54243
G1 X55.759 Y37.829 E20.58050
G1 X55.592 Y39.101 E20.61858
G1 X55.536 Y40.378 E20.65653
G1 X55.536 Y66.224 E21.42392
G1 X38.936 Y66.224 E21.91680
G1 X38.936 Y40.885 E22.66912
G1 X38.990 Y39.260 E22.71740
G1 X39.149 Y37.645 E22.76559
G1 X39.413 Y36.044 E22.81377
G1 X39.782 Y34.463 E22.86196
G1 X40.252 Y32.913 E22.91006
G1 X40.826 Y31.388 E22.95845
G1 X41.494 Y29.913 E23.00653
G1 X42.259 Y28.482 E23.05470
G1 X43.113 Y27.109 E23.10272
G1 X44.061 Y25.785 E23.15107
G1 X45.091 Y24.530 E23.19925
G1 X46.200 Y23.346 E23.24743
G1 X47.385 Y22.237 E23.29562
G1 X48.639 Y21.207 E23.34380
G1 X49.955 Y20.264 E23.39189
G1 X51.336 Y19.405 E23.44017
G1 X52.768 Y18.640 E23.48836
G1 X54.246 Y17.970 E23.53654
G1 X55.765 Y17.398 E23.58473
G1 X57.314 Y16.928 E23.63281
G1 X58.898 Y16.559 E23.68110
G1 X60.499 Y16.294 E23.72928
G1 X62.114 Y16.135 E23.77747
G1 X63.740 Y16.082 E23.82575
G1 X170.233 Y16.082 E26.98768
G1 X171.822 Y16.134 E27.03489
G1 X173.408 Y16.290 E27.08220 F1800.000
G1 X174.977 Y16.549 E27.12941
G1 X176.526 Y16.910 E27.17663
G1 X178.047 Y17.372 E27.22384
G1 X179.536 Y17.932 E27.27105
G1 X180.984 Y18.588 E27.31827
G1 X182.386 Y19.338 E27.36548
G1 X183.737 Y20.177 E27.41269
G1 X185.029 Y21.104 E27.45991
G1 X186.258 Y22.112 E27.50712
G1 X187.419 Y23.199 E27.55433
G1 X188.506 Y24.360 E27.60155
G1 X189.515 Y25.589 E27.64876
G1 X190.441 Y26.882 E27.69597
G1 X191.281 Y28.232 E27.74319
G1 X192.030 Y29.635 E27.79040
G1 X192.687 Y31.083 E27.83761
G1 X193.247 Y32.571 E27.88483
G1 X193.708 Y34.093 E27.93204
G1 X194.069 Y35.641 E27.97925
G1 X194.328 Y37.210 E28.02647
G1 X194.484 Y38.793 E28.07368
G1 X194.536 Y40.385 E28.12099
G1 X194.536 Y66.224 E28.88816
G1 X185.443 Y66.224 E29.15814
G1 X185.152 Y65.849 F9000.000
G1 X194.036 Y65.617 F9000.000
G1 X185.416 Y65.617 E29.41412 F1800.000
G1 X185.416 Y65.259 E29.42473
G1 X194.036 Y65.259 E29.68072
G1 X194.036 Y64.902 E29.69132
G1 X185.416 Y64.902 E29.94731
G1 X185.416 Y64.545 E29.95791
G1 X194.036 Y64.545 E30.21390
G1 X194.036 Y64.188 E30.22450
G1 X185.416 Y64.188 E30.48049
G1 X185.416 Y63.831 E30.49109
G1 X194.036 Y63.831 E30.74708
G1 X194.036 Y63.474 E30.75768
G1 X185.416 Y63.474 E31.01367
G1 X185.416 Y63.117 E31.02427
G1 X194.036 Y63.117 E31.28026
G1 X194.036 Y62.760 E31.29086
G1 X185.416 Y62.760 E31.54685
G1 X185.416 Y62.402 E31.55745
G1 X194.036 Y62.402 E31.81344
G1 X194.036 Y62.045 E31.82404
G1 X185.416 Y62.045 E32.08003
G1 X185.416 Y61.688 E32.09064
G1 X194.036 Y61.688 E32.34662
G1 X194.036 Y61.331 E32.35723
G1 X185.416 Y61.331 E32.61321
G1 X185.416 Y60.974 E32.62382
G1 X194.036 Y60.974 E32.87980
G1 X194.036 Y60.617 E32.89041
G1 X185.416 Y60.617 E33.14639
G1 X185.416 Y60.260 E33.15700
G1 X194.036 Y60.260 E33.41298
G1 X194.036 Y59.902 E33.42359
G1 X185.416 Y59.902 E33.67957
G1 X185.416 Y59.545 E33.69018
G1 X194.036 Y59.545 E33.94616
G1 X194.036 Y59.188 E33.95677
G1 X185.416 Y59.188 E34.21275
G1 X185.416 Y58.831 E34.22336
G1 X194.036 Y58.831 E34.47934
G1 X194.036 Y58.474 E34.48995
G1 X185.416 Y58.474 E34.74593
G1 X185.416 Y58.117 E34.75654
G1 X194.036 Y58.117 E35.01253
G1 X194.036 Y57.760 E35.02313
G1 X185.416 Y57.760 E35.27912
G1 X185.416 Y57.403 E35.28972
G1 X194.036 Y57.403 E35.54571
G1 X194.036 Y57.045 E35.55631
G1 X185.416 Y57.045 E35.81230
G1 X185.416 Y56.688 E35.82290
G1 X194.036 Y56.688 E36.07889
G1 X194.036 Y56.331 E36.08949
G1 X185.416 Y56.331 E36.34548
G1 X185.416 Y55.974 E36.35608
G1 X194.036 Y55.974 E36.61207
G1 X194.036 Y55.617 E36.62267
G1 X185.416 Y55.617 E36.87866
G1 X185.416 Y55.260 E36.88926
G1 X194.036 Y55.260 E37.14525
G1 X194.036 Y54.903 E37.15585
G1 X185.416 Y54.903 E37.41184
G1 X185.416 Y54.545 E37.42245
G1 X194.036 Y54.545 E37.67843
G1 X194.036 Y54.188 E37.68904
G1 X185.416 Y54.188 E37.94502
G1 X185.416 Y53.831 E37.95563
G1 X194.036 Y53.831 E38.21161
G1 X194.036 Y53.474 E38.22222
G1 X185.416 Y53.474 E38.47820
G1 X185.416 Y53.117 E38.48881
G1 X194.036 Y53.117 E38.74479
G1 X194.036 Y52.760 E38.75540
G1 X185.416 Y52.760 E39.01138
G1 X185.416 Y52.403 E39.02199
G1 X194.036 Y52.403 E39.27797
G1 X194.036 Y52.045 E39.28858
G1 X185.416 Y52.045 E39.54456
G1 X185.416 Y51.688 E39.55517
G1 X194.036 Y51.688 E39.81115
G1 X194.036 Y51.331 E39.82176
G1 X185.416 Y51.331 E40.07774
G1 X185.416 Y50.974 E40.08835
G1 X194.036 Y50.974 E40.34434
G1 X194.036 Y50.617 E40.35494
G1 X185.416 Y50.617 E40.61093
G1 X185.416 Y50.260 E40.62153
G1 X194.036 Y50.260 E40.87752
G1 X194.036 Y49.903 E40.88812
G1 X185.416 Y49.903 E41.14411
G1 X185.416 Y49.546 E41.15471
G1 X194.036 Y49.546 E41.41070
G1 X194.036 Y49.188 E41.42130
G1 X185.416 Y49.188 E41.67729
G1 X185.416 Y48.831 E41.68789
G1 X194.036 Y48.831 E41.94388
G1 X194.036 Y48.474 E41.95448
G1 X185.416 Y48.474 E42.21047
G1 X185.416 Y48.117 E42.22107
G1 X194.036 Y48.117 E42.47706
G1 X194.036 Y47.760 E42.48766
G1 X185.416 Y47.760 E42.74365
G1 X185.416 Y47.403 E42.75425
G1 X194.036 Y47.403 E43.01024
G1 X194.036 Y47.046 E43.02085
G1 X185.416 Y47.046 E43.27683
G1 X185.416 Y46.688 E43.28744
G1 X194.036 Y46.688 E43.54342
G1 X194.036 Y46.331 E43.55403
G1 X185.416 Y46.331 E43.81001
G1 X185.416 Y45.974 E43.82062
G1 X194.036 Y45.974 E44.07660
G1 X194.036 Y45.617 E44.08721
G1 X185.416 Y45.617 E44.34319
G1 X185.416 Y45.260 E44.35380
G1 X194.036 Y45.260 E44.60978
G1 X194.036 Y44.903 E44.62039
G1 X185.416 Y44.903 E44.87637
G1 X185.416 Y44.546 E44.88698
G1 X194.036 Y44.546 E45.14296
G1 X194.036 Y44.189 E45.15357
G1 X185.416 Y44.189 E45.40955
G1 X185.416 Y43.831 E45.42016
G1 X194.036 Y43.831 E45.67614
G1 X194.036 Y43.474 E45.68675
G1 X185.416 Y43.474 E45.94274
G1 X185.416 Y43.117 E45.95334
G1 X194.036 Y43.117 E46.20933
G1 X194.036 Y42.760 E46.21993
G1 X185.416 Y42.760 E46.47592
G1 X185.416 Y42.403 E46.48652
G1 X194.036 Y42.403 E46.74251
G1 X194.036 Y42.046 E46.75311
G1 X185.416 Y42.046 E47.00910
G1 X185.416 Y41.689 E47.01970
G1 X194.036 Y41.689 E47.27569
G1 X194.036 Y41.331 E47.28629
G1 X185.416 Y41.331 E47.54228
G1 X185.416 Y40.974 E47.55288
G1 X194.036 Y40.974 E47.80887
G1 X194.036 Y40.617 E47.81947
G1 X185.416 Y40.617 E48.07546
G1 X185.412 Y40.260 E48.08607
G1 X194.036 Y40.260 E48.34219
G1 X194.036 Y39.903 E48.35279
G1 X185.396 Y39.903 E48.60938
G1 X185.380 Y39.546 E48.61999
G1 X194.029 Y39.546 E48.87681
G1 X194.017 Y39.189 E48.88742
G1 X185.365 Y39.189 E49.14435
G1 X185.330 Y38.831 E49.15500
G1 X194.005 Y38.831 E49.41262
G1 X193.970 Y38.474 E49.42328
G1 X185.283 Y38.474 E49.68125
G1 X185.236 Y38.117 E49.69194
G1 X193.935 Y38.117 E49.95026
G1 X193.900 Y37.760 E49.96092
G1 X185.189 Y37.760 E50.21959
G1 X185.113 Y37.403 E50.23044
G1 X193.865 Y37.403 E50.49033
G1 X193.813 Y37.046 E50.50104
G1 X185.034 Y37.046 E50.76177
G1 X184.954 Y36.689 E50.77263
G1 X193.754 Y36.689 E51.03395
G1 X193.695 Y36.332 E51.04470
G1 X184.866 Y36.332 E51.30688
G1 X184.754 Y35.974 E51.31800
G1 X193.636 Y35.974 E51.58178
G1 X193.568 Y35.617 E51.59258
G1 X184.641 Y35.617 E51.85766
G1 X184.529 Y35.260 E51.86878
G1 X193.485 Y35.260 E52.13474
G1 X193.401 Y34.903 E52.14563
G1 X184.391 Y34.903 E52.41320
G1 X184.243 Y34.546 E52.42468
G1 X193.318 Y34.546 E52.69416
G1 X193.231 Y34.189 E52.70508
G1 X184.095 Y34.189 E52.97637
G1 X183.938 Y33.832 E52.98796
G1 X193.123 Y33.832 E53.26071
G1 X193.014 Y33.474 E53.27179
G1 X183.752 Y33.474 E53.54684
G1 X183.566 Y33.117 E53.55880
G1 X192.906 Y33.117 E53.83615
G1 X192.798 Y32.760 E53.84724
G1 X183.380 Y32.760 E54.12689
G1 X183.155 Y32.403 E54.13943
G1 X192.663 Y32.403 E54.42178
G1 X192.529 Y32.046 E54.43311
G1 X182.928 Y32.046 E54.71823
G1 X182.700 Y31.689 E54.73081
G1 X192.394 Y31.689 E55.01869
G1 X192.260 Y31.332 E55.03002
G1 X182.436 Y31.332 E55.32176
G1 X182.162 Y30.975 E55.33512
G1 X192.100 Y30.975 E55.63024
G1 X191.938 Y30.617 E55.64189
G1 X181.888 Y30.617 E55.94034
G1 X181.570 Y30.260 E55.95454
G1 X191.776 Y30.260 E56.25763
G1 X191.615 Y29.903 E56.26927
G1 X181.243 Y29.903 E56.57728
G1 X180.911 Y29.546 E56.59175
G1 X191.424 Y29.546 E56.90396
G1 X191.234 Y29.189 E56.91599
G1 X180.521 Y29.189 E57.23410
G1 X180.131 Y28.832 E57.24980
G1 X191.043 Y28.832 E57.57382
G1 X190.847 Y28.475 E57.58591
G1 X179.700 Y28.475 E57.91694
G1 X179.235 Y28.117 E57.93436
G1 X190.625 Y28.117 E58.27261
G1 X190.403 Y27.760 E58.28510
G1 X178.743 Y27.760 E58.63136
G1 X178.182 Y27.403 E58.65110
G1 X190.181 Y27.403 E59.00741
G1 X189.944 Y27.046 E59.02015
G1 X177.588 Y27.046 E59.38707
G1 X176.902 Y26.689 E59.41004
G1 X189.688 Y26.689 E59.78973
G1 X189.432 Y26.332 E59.80277
G1 X176.119 Y26.332 E60.19810
G1 X175.226 Y25.975 F9000.000
G1 X189.176 Y25.975 E60.61236 F1800.000
G1 X188.886 Y25.617 E60.62602
G1 X174.093 Y25.617 E61.06530
G1 X172.281 Y25.260 F9000.000
G1 X188.593 Y25.260 E61.54970 F1800.000
G1 X188.299 Y24.903 E61.56342
G1 X45.439 Y24.903 E65.80579
G1 X45.773 Y24.546 E65.82032
G1 X187.983 Y24.546 E70.04337
G1 X187.649 Y24.189 E70.05790
G1 X46.108 Y24.189 E74.26108
G1 X46.442 Y23.832 E74.27561
G1 X187.314 Y23.832 E78.45892
G1 X186.961 Y23.475 E78.47383
G1 X46.814 Y23.475 E82.63562
G1 X47.196 Y23.118 E82.65113
G1 X186.580 Y23.118 E86.79027
G1 X186.199 Y22.760 E86.80578
G1 X47.577 Y22.760 E90.92228
G1 X48.000 Y22.403 E90.93871
G1 X185.795 Y22.403 E95.03065
G1 X185.359 Y22.046 E95.04737
G1 X48.435 Y22.046 E99.11346
G1 X48.870 Y21.689 E99.13018
G1 X184.924 Y21.689 E103.17043
G1 X184.447 Y21.332 E103.18813
G1 X49.366 Y21.332 E107.19949
G1 X49.864 Y20.975 E107.21770
G1 X183.949 Y20.975 E111.19946
G1 X183.440 Y20.618 E111.21792
G1 X50.391 Y20.618 E115.16893
G1 X50.965 Y20.260 E115.18900
G1 X182.866 Y20.260 E119.10591
G1 X182.291 Y19.903 E119.12599
G1 X51.542 Y19.903 E123.00871
G1 X52.210 Y19.546 E123.03121
G1 X181.638 Y19.546 E126.87469
G1 X180.970 Y19.189 E126.89719
G1 X52.878 Y19.189 E130.70099
G1 X53.659 Y18.832 F9000.000
G1 X180.207 Y18.832 E134.45894 F1800.000
G1 X179.418 Y18.475 F9000.000
G1 X54.464 Y18.475 E138.16958 F1800.000
G1 X55.413 Y18.118 F9000.000
G1 X178.470 Y18.118 E141.82386 F1800.000
G1 X177.414 Y17.761 F9000.000
G1 X56.486 Y17.761 E145.41492 F1800.000
G1 X57.754 Y17.403 F9000.000
G1 X176.163 Y17.403 E148.93116 F1800.000
G1 X174.492 Y17.046 F9000.000
G1 X59.442 Y17.046 E152.34767 F1800.000
G1 X63.031 Y16.689 F9000.000
G1 X170.942 Y16.689 E155.55216 F1800.000
G1 X68.192 Y25.260 F9000.000
G1 X45.144 Y25.260 E156.23659 F1800.000
G1 X44.851 Y25.617 E156.25031
G1 X66.380 Y25.617 E156.88962
G1 X65.247 Y25.975 F9000.000
G1 X44.558 Y25.975 E157.50400 F1800.000
G1 X44.284 Y26.332 E157.51736
G1 X64.353 Y26.332 E158.11331
G1 X63.571 Y26.689 F9000.000
G1 X44.029 Y26.689 E158.69364 F1800.000
G1 X43.773 Y27.046 E158.70668
G1 X62.885 Y27.046 E159.27423
G1 X62.290 Y27.403 E159.29483
G1 X43.517 Y27.403 E159.85232
G1 X43.292 Y27.760 E159.86486
G1 X61.730 Y27.760 E160.41238
G1 X61.238 Y28.117 E160.43043
G1 X43.070 Y28.117 E160.96995
G1 X42.848 Y28.475 E160.98244
G1 X60.773 Y28.475 E161.51473
G1 X60.341 Y28.832 E161.53136
G1 X42.631 Y28.832 E162.05730
G1 X42.440 Y29.189 E162.06932
G1 X59.952 Y29.189 E162.58935
G1 X59.562 Y29.546 E162.60505
G1 X42.249 Y29.546 E163.11917
G1 X42.058 Y29.903 E163.13120
G1 X59.230 Y29.903 E163.64114
G1 X58.903 Y30.260 E163.65552
G1 X41.874 Y30.260 E164.16121
G1 X41.712 Y30.617 E164.17285
G1 X58.585 Y30.617 E164.67389
G1 X58.311 Y30.975 E164.68726
G1 X41.551 Y30.975 E165.18497
G1 X41.389 Y31.332 E165.19661
G1 X58.037 Y31.332 E165.69099
G1 X57.772 Y31.689 E165.70418
G1 X41.233 Y31.689 E166.19534
G1 X41.098 Y32.046 E166.20667
G1 X57.545 Y32.046 E166.69507
G1 X57.317 Y32.403 E166.70765
G1 X40.964 Y32.403 E167.19328
G1 X40.829 Y32.760 E167.20461
G1 X57.092 Y32.760 E167.68756
G1 X56.907 Y33.117 E167.69951
G1 X40.696 Y33.117 E168.18090
G1 X40.588 Y33.474 E168.19198
G1 X56.721 Y33.474 E168.67106
