; generated by Slic3r 1.2.9 on 2017-05-17 at 12:55:08

; external perimeters extrusion width = 0.50mm
; perimeters extrusion width = 0.85mm
; infill extrusion width = 1.02mm
; solid infill extrusion width = 0.85mm
; top infill extrusion width = 0.85mm
; support material extrusion width = 0.50mm

M107
M190 S50 ; set bed temperature
M104 S200 ; set temperature

M109 S200 ; wait for temperature to be reached
G21 ; set units to millimeters
G90 ; use absolute coordinates
M82 ; use absolute distances for extrusion
G92 E0
G1 Z0.200 F9000.000
G1 E-2.00000 F2400.00000
G92 E0
G1 X15.355 Y50.643 F9000.000
G1 E2.00000 F2400.00000
G1 X15.918 Y49.146 E2.04749 F1800.000
G1 X16.577 Y47.692 E2.09488
G1 X17.332 Y46.279 E2.14247
G1 X18.177 Y44.920 E2.18996
G1 X19.108 Y43.620 E2.23745
G1 X20.123 Y42.384 E2.28494
G1 X21.216 Y41.216 E2.33243
G1 X22.384 Y40.123 E2.37992
G1 X23.620 Y39.108 E2.42742
G1 X24.918 Y38.179 E2.47480
G1 X26.279 Y37.332 E2.52240
G1 X27.689 Y36.578 E2.56989
G1 X29.146 Y35.918 E2.61738
G1 X30.643 Y35.355 E2.66487
G1 X32.174 Y34.890 E2.71236
G1 X33.731 Y34.527 E2.75985
G1 X35.310 Y34.266 E2.80734
G1 X36.900 Y34.110 E2.85479
G1 X41.442 Y33.985 E2.98970
G1 X44.376 Y33.769 E3.07704
G1 X47.296 Y33.410 E3.16440
G1 X50.195 Y32.908 E3.25176
G1 X53.066 Y32.264 E3.33912
G1 X55.911 Y31.478 E3.42675
G1 X58.696 Y30.560 E3.51383
G1 X61.434 Y29.506 E3.60094
G1 X64.133 Y28.312 E3.68855
G1 X66.632 Y27.057 E3.77159
G1 X91.484 Y27.057 E4.50948
G1 X91.484 Y42.943 E4.98116
G1 X38.488 Y42.943 E6.55469 F1800.000
G1 X37.144 Y43.002 E6.59463
G1 X35.796 Y43.179 E6.63501
G1 X34.473 Y43.472 E6.67522
G1 X33.182 Y43.880 E6.71544
G1 X31.925 Y44.400 E6.75582
G1 X30.721 Y45.027 E6.79612
G1 X29.577 Y45.756 E6.83641
G1 X28.500 Y46.582 E6.87671
G1 X27.501 Y47.497 E6.91692
G1 X26.582 Y48.500 E6.95730
G1 X25.756 Y49.576 E6.99760
G1 X25.027 Y50.721 E7.03790
G1 X24.400 Y51.925 E7.07820
G1 X23.881 Y53.179 E7.11850
G1 X23.473 Y54.473 E7.15879
G1 X23.179 Y55.798 E7.19909
G1 X23.002 Y57.141 E7.23931
G1 X22.943 Y58.488 E7.27932
G1 X22.943 Y78.484 E7.87305
G1 X14.057 Y78.484 E8.13688
G1 X14.057 Y58.509 E8.72997
G1 X14.110 Y56.904 E8.77766
G1 X14.266 Y55.311 E8.82518
G1 X14.527 Y53.731 E8.87272
G1 X14.890 Y52.174 E8.92021
G1 X15.333 Y50.715 E8.96547
G1 X14.991 Y50.611 F9000.000
G1 X15.588 Y49.009 E9.01622 F1800.000
G1 X16.256 Y47.534 E9.06431
G1 X17.023 Y46.100 E9.11259
G1 X17.880 Y44.722 E9.16078
G1 X18.825 Y43.403 E9.20896
G1 X19.854 Y42.148 E9.25715
G1 X20.964 Y40.964 E9.30533
G1 X22.148 Y39.854 E9.35352
G1 X23.403 Y38.825 E9.40170
G1 X24.719 Y37.882 E9.44978
G1 X26.100 Y37.023 E9.49807
G1 X27.531 Y36.258 E9.54626
G1 X29.010 Y35.588 E9.59444
G1 X30.528 Y35.016 E9.64263
G1 X32.081 Y34.545 E9.69081
G1 X33.662 Y34.177 E9.73899
G1 X35.263 Y33.912 E9.78718
G1 X36.877 Y33.753 E9.83535
G1 X41.424 Y33.628 E9.97040
G1 X44.341 Y33.414 E10.05723
G1 X47.244 Y33.056 E10.14407
G1 X50.125 Y32.557 E10.23091
G1 X52.979 Y31.918 E10.31775
G1 X55.807 Y31.136 E10.40486
G1 X58.576 Y30.223 E10.49142
G1 X61.298 Y29.176 E10.57801
G1 X63.981 Y27.989 E10.66511
G1 X66.547 Y26.700 E10.75039
G1 X91.841 Y26.700 E11.50140
G1 X91.841 Y43.300 E11.99428
G1 X38.496 Y43.300 E13.57819 F1800.000
G1 X37.175 Y43.358 E13.61743
G1 X35.858 Y43.531 E13.65688
G1 X34.566 Y43.818 E13.69617
G1 X33.304 Y44.216 E13.73546
G1 X32.076 Y44.724 E13.77491
G1 X30.900 Y45.336 E13.81429
G1 X29.782 Y46.049 E13.85366
G1 X28.730 Y46.856 E13.89303
G1 X27.754 Y47.750 E13.93232
G1 X26.856 Y48.729 E13.97177
G1 X26.049 Y49.782 E14.01115
G1 X25.336 Y50.900 E14.05052
G1 X24.724 Y52.076 E14.08989
G1 X24.216 Y53.301 E14.12926
G1 X23.818 Y54.566 E14.16863
G1 X23.531 Y55.860 E14.20801
G1 X23.358 Y57.172 E14.24730
G1 X23.300 Y58.496 E14.28662
G1 X23.300 Y78.841 E14.89071
G1 X13.700 Y78.841 E15.17575
G1 X13.700 Y58.503 E15.77962
G1 X13.753 Y56.881 E15.82782
G1 X13.912 Y55.264 E15.87604
G1 X14.177 Y53.662 E15.92427
G1 X14.545 Y52.081 E15.97245
G1 X14.969 Y50.683 E16.01584
G1 X15.482 Y50.518 F9000.000
G1 X14.211 Y77.634 F9000.000
G1 X14.908 Y78.330 E16.04511 F1800.000
G1 X15.413 Y78.330 E16.06013
G1 X14.211 Y77.128 E16.11063
G1 X14.211 Y76.623 E16.12565
G1 X15.919 Y78.330 E16.19739
G1 X16.424 Y78.330 E16.21241
G1 X14.211 Y76.117 E16.30539
G1 X14.211 Y75.612 E16.32040
G1 X16.929 Y78.330 E16.43462
G1 X17.435 Y78.330 E16.44963
G1 X14.211 Y75.107 E16.58508
G1 X14.211 Y74.601 E16.60010
G1 X17.940 Y78.330 E16.75678
G1 X18.445 Y78.330 E16.77180
G1 X14.211 Y74.096 E16.94972
G1 X14.211 Y73.591 E16.96473
G1 X18.951 Y78.330 E17.16389
G1 X19.456 Y78.330 E17.17890
G1 X14.211 Y73.085 E17.39929
G1 X14.211 Y72.580 E17.41431
G1 X19.961 Y78.330 E17.65594
G1 X20.467 Y78.330 E17.67095
G1 X14.211 Y72.075 E17.93381
G1 X14.211 Y71.569 E17.94883
G1 X20.972 Y78.330 E18.23292
G1 X21.478 Y78.330 E18.24794
G1 X14.211 Y71.064 E18.55327
G1 X14.211 Y70.559 E18.56829
G1 X21.983 Y78.330 E18.89485
G1 X22.488 Y78.330 E18.90987
G1 X14.211 Y70.053 E19.25767
G1 X14.211 Y69.548 E19.27269
G1 X22.789 Y78.125 E19.63312
G1 X22.789 Y77.620 E19.64813
G1 X14.211 Y69.042 E20.00856
G1 X14.211 Y68.537 E20.02358
G1 X22.789 Y77.115 E20.38401
G1 X22.789 Y76.609 E20.39902
G1 X14.211 Y68.032 E20.75945
G1 X14.211 Y67.526 E20.77447
G1 X22.789 Y76.104 E21.13490
G1 X22.789 Y75.599 E21.14991
G1 X14.211 Y67.021 E21.51034
G1 X14.211 Y66.516 E21.52536
G1 X22.789 Y75.093 E21.88579
G1 X22.789 Y74.588 E21.90081
G1 X14.211 Y66.010 E22.26123
G1 X14.211 Y65.505 E22.27625
G1 X22.789 Y74.082 E22.63668
G1 X22.789 Y73.577 E22.65170
G1 X14.211 Y65.000 E23.01213
G1 X14.211 Y64.494 E23.02714
G1 X22.789 Y73.072 E23.38757
G1 X22.789 Y72.566 E23.40259
G1 X14.211 Y63.989 E23.76302
G1 X14.211 Y63.484 E23.77803
G1 X22.789 Y72.061 E24.13846
G1 X22.789 Y71.556 E24.15348
G1 X14.211 Y62.978 E24.51391
G1 X14.211 Y62.473 E24.52892
G1 X22.789 Y71.050 E24.88935
G1 X22.789 Y70.545 E24.90437
G1 X14.211 Y61.967 E25.26480
G1 X14.211 Y61.462 E25.27981
G1 X22.789 Y70.040 E25.64024
G1 X22.789 Y69.534 E25.65526
G1 X14.211 Y60.957 E26.01569
G1 X14.211 Y60.451 E26.03070
G1 X22.789 Y69.029 E26.39113
G1 X22.789 Y68.524 E26.40615
G1 X14.211 Y59.946 E26.76658
G1 X14.211 Y59.441 E26.78159
G1 X22.789 Y68.018 E27.14202
G1 X22.789 Y67.513 E27.15704
G1 X14.211 Y58.935 E27.51747
G1 X14.211 Y58.430 E27.53248
G1 X22.789 Y67.007 E27.89290
G1 X22.789 Y66.502 E27.90791
G1 X14.227 Y57.941 E28.26766
G1 X14.243 Y57.452 E28.28221
G1 X22.789 Y65.997 E28.64128
G1 X22.789 Y65.491 E28.65630
G1 X14.259 Y56.962 E29.01470
G1 X14.298 Y56.495 E29.02863
G1 X22.789 Y64.986 E29.38543
G1 X22.789 Y64.481 E29.40045
G1 X14.343 Y56.035 E29.75534
G1 X14.388 Y55.575 E29.76908
G1 X22.789 Y63.975 E30.12208
G1 X22.789 Y63.470 E30.13709
G1 X14.442 Y55.123 E30.48782
G1 X14.514 Y54.690 E30.50088
G1 X22.789 Y62.965 E30.84861
G1 X22.789 Y62.459 E30.86362
G1 X14.585 Y54.256 E31.20834
G1 X14.657 Y53.822 E31.22140
G1 X22.789 Y61.954 E31.56310
G1 X22.789 Y61.449 E31.57812
G1 X14.746 Y53.406 E31.91609
G1 X14.841 Y52.996 E31.92859
G1 X22.789 Y60.943 E32.26255
G1 X22.789 Y60.438 E32.27757
G1 X14.937 Y52.586 E32.60751
G1 X15.032 Y52.176 E32.62001
G1 X22.789 Y59.932 E32.94594
G1 X22.789 Y59.427 E32.96095
G1 X15.149 Y51.787 E33.28198
G1 X15.267 Y51.400 E33.29402
G1 X22.789 Y58.922 E33.61010
G1 X22.795 Y58.422 E33.62494
G1 X15.384 Y51.012 E33.93633
G1 X15.503 Y50.625 E33.94835
G1 X22.816 Y57.938 E34.25565
G1 X22.837 Y57.454 E34.27005
G1 X15.641 Y50.258 E34.57244
G1 X15.779 Y49.891 E34.58410
G1 X22.876 Y56.988 E34.88231
G1 X22.935 Y56.541 E34.89569
G1 X15.917 Y49.524 E35.19057
G1 X16.056 Y49.157 E35.20223
G1 X22.994 Y56.094 E35.49376
G1 X23.066 Y55.662 E35.50680
G1 X16.213 Y48.809 E35.79476
G1 X16.371 Y48.461 E35.80611
G1 X23.158 Y55.248 E36.09130
G1 X23.249 Y54.834 E36.10389
G1 X16.528 Y48.113 E36.38631
G1 X16.686 Y47.765 E36.39766
G1 X23.346 Y54.426 E36.67752
G1 X23.467 Y54.041 E36.68949
G1 X16.859 Y47.434 E36.96716
G1 X17.035 Y47.104 E36.97825
G1 X23.588 Y53.657 E37.25361
G1 X23.710 Y53.273 E37.26558
G1 X17.211 Y46.775 E37.53863
G1 X17.387 Y46.445 E37.54973
G1 X23.851 Y52.909 E37.82132
G1 X23.999 Y52.551 E37.83281
G1 X17.574 Y46.127 E38.10277
G1 X17.768 Y45.815 E38.11368
G1 X24.147 Y52.194 E38.38172
G1 X24.299 Y51.841 E38.39313
G1 X17.962 Y45.504 E38.65945
G1 X18.156 Y45.192 E38.67035
G1 X24.472 Y51.509 E38.93579
G1 X24.645 Y51.177 E38.94692
G1 X18.354 Y44.886 E39.21128
G1 X18.565 Y44.591 E39.22204
G1 X24.819 Y50.844 E39.48480
G1 X25.004 Y50.524 E39.49579
G1 X18.776 Y44.297 E39.75746
G1 X18.987 Y44.003 E39.76822
G1 X25.200 Y50.215 E40.02929
G1 X25.397 Y49.907 E40.04017
G1 X19.198 Y43.708 E40.30064
G1 X19.425 Y43.429 E40.31131
G1 X25.594 Y49.598 E40.57053
G1 X25.807 Y49.306 E40.58128
G1 X19.652 Y43.152 E40.83990
G1 X19.880 Y42.874 E40.85057
G1 X26.027 Y49.020 E41.10885
G1 X26.246 Y48.735 E41.11956
G1 X20.108 Y42.597 E41.37748
G1 X20.344 Y42.327 E41.38812
G1 X26.465 Y48.449 E41.64533
G1 X26.706 Y48.183 E41.65596
G1 X20.589 Y42.066 E41.91300
G1 X20.833 Y41.805 E41.92362
G1 X26.947 Y47.920 E42.18054
G1 X27.189 Y47.656 E42.19117
G1 X21.084 Y41.551 E42.44770
G1 X21.337 Y41.298 E42.45832
G1 X27.432 Y47.394 E42.71445
G1 X27.696 Y47.152 E42.72508
G1 X21.589 Y41.046 E42.98167
G1 X21.845 Y40.796 E42.99229
G1 X27.960 Y46.910 E43.24922
G1 X28.223 Y46.669 E43.25985
G1 X22.106 Y40.552 E43.51690
G1 X22.367 Y40.307 E43.52752
G1 X28.492 Y46.432 E43.78490
G1 X28.778 Y46.213 E43.79561
G1 X22.639 Y40.074 E44.05358
G1 X22.916 Y39.846 E44.06425
G1 X29.064 Y45.993 E44.32258
G1 X29.350 Y45.774 E44.33329
G1 X23.194 Y39.618 E44.59197
G1 X23.471 Y39.390 E44.60264
G1 X29.645 Y45.564 E44.86206
G1 X29.954 Y45.367 E44.87293
G1 X23.753 Y39.166 E45.13349
G1 X24.047 Y38.955 E45.14425
G1 X30.262 Y45.170 E45.40542
G1 X30.571 Y44.974 E45.41629
G1 X24.342 Y38.744 E45.67806
G1 X24.636 Y38.533 E45.68882
G1 X30.895 Y44.792 E45.95182
G1 X31.227 Y44.619 E45.96295
G1 X24.930 Y38.322 E46.22755
G1 X25.240 Y38.126 E46.23843
G1 X31.560 Y44.446 E46.50400
G1 X31.892 Y44.273 E46.51513
G1 X25.551 Y37.933 E46.78157
G1 X25.863 Y37.739 E46.79247
G1 X32.248 Y44.124 E47.06080
G1 X32.606 Y43.976 E47.07229
G1 X26.174 Y37.545 E47.34255
G1 X26.495 Y37.361 E47.35355
G1 X32.963 Y43.828 E47.62533
G1 X33.331 Y43.691 E47.63700
G1 X26.825 Y37.185 E47.91041
G1 X27.154 Y37.009 E47.92150
G1 X33.715 Y43.570 E48.19721
G1 X34.100 Y43.449 E48.20919
G1 X27.483 Y36.833 E48.48720
G1 X27.818 Y36.662 E48.49837
G1 X34.484 Y43.328 E48.77846
G1 X34.897 Y43.236 E48.79104
G1 X28.166 Y36.504 E49.07389
G1 X28.514 Y36.347 E49.08523
G1 X35.311 Y43.144 E49.37085
G1 X35.724 Y43.052 E49.38343
G1 X28.862 Y36.189 E49.67182
G1 X29.212 Y36.035 E49.68320
G1 X36.162 Y42.985 E49.97526
G1 X36.609 Y42.926 E49.98864
G1 X29.579 Y35.896 E50.28402
G1 X29.946 Y35.758 E50.29568
G1 X37.055 Y42.867 E50.59440
G1 X37.527 Y42.834 E50.60846
G1 X30.314 Y35.620 E50.91159
G1 X30.683 Y35.484 E50.92328
G1 X38.012 Y42.813 E51.23123
G1 X38.496 Y42.791 E51.24563
G1 X31.071 Y35.366 E51.55764
G1 X31.458 Y35.249 E51.56968
G1 X38.998 Y42.789 E51.88651
G1 X39.504 Y42.789 E51.90153
G1 X31.846 Y35.131 E52.22330
G1 X32.238 Y35.018 E52.23543
G1 X40.009 Y42.789 E52.56197
G1 X40.515 Y42.789 E52.57698
G1 X32.648 Y34.922 E52.90753
G1 X33.058 Y34.827 E52.92003
G1 X41.020 Y42.789 E53.25460
G1 X41.525 Y42.789 E53.26962
G1 X33.468 Y34.731 E53.60820
G1 X33.888 Y34.646 E53.62093
G1 X42.031 Y42.789 E53.96309
G1 X42.536 Y42.789 E53.97811
G1 X34.322 Y34.574 E54.32328
G1 X34.755 Y34.503 E54.33634
G1 X43.041 Y42.789 E54.68452
G1 X43.547 Y42.789 E54.69954
G1 X35.189 Y34.431 E55.05073
G1 X35.645 Y34.381 E55.06434
G1 X44.052 Y42.789 E55.41763
G1 X44.557 Y42.789 E55.43264
G1 X36.105 Y34.336 E55.78783
G1 X36.565 Y34.291 E55.80156
G1 X45.063 Y42.789 E56.15866
G1 X45.568 Y42.789 E56.17367
G1 X37.038 Y34.258 E56.53213
G1 X37.529 Y34.245 E56.54675
G1 X46.073 Y42.789 E56.90577
G1 X46.579 Y42.789 E56.92078
G1 X38.021 Y34.231 E57.28037
G1 X38.513 Y34.218 E57.29499
G1 X47.084 Y42.789 E57.65515
G1 X47.590 Y42.789 E57.67017
G1 X39.005 Y34.204 E58.03089
G1 X39.497 Y34.191 E58.04551
G1 X48.095 Y42.789 E58.40680
G1 X48.600 Y42.789 E58.42182
G1 X39.989 Y34.177 E58.78368
G1 X40.481 Y34.164 E58.79830
G1 X49.106 Y42.789 E59.16073
G1 X49.611 Y42.789 E59.17574
G1 X40.972 Y34.150 E59.53874
G1 X41.461 Y34.133 E59.55325
G1 X50.116 Y42.789 E59.91697
G1 X50.622 Y42.789 E59.93198
G1 X41.931 Y34.098 E60.29716
G1 X42.402 Y34.064 E60.31118
G1 X51.127 Y42.789 E60.67781
G1 X51.632 Y42.789 E60.69283
G1 X42.873 Y34.029 E61.06092
G1 X43.343 Y33.994 E61.07494
G1 X52.138 Y42.789 E61.44448
G1 X52.643 Y42.789 E61.45950
G1 X43.814 Y33.960 E61.83050
G1 X44.285 Y33.925 E61.84452
G1 X53.148 Y42.789 E62.21698
G1 X53.654 Y42.789 E62.23199
G1 X44.736 Y33.871 E62.60671
G1 X45.186 Y33.816 E62.62018
G1 X54.159 Y42.789 E62.99722
G1 X54.664 Y42.789 E63.01224
G1 X45.636 Y33.761 E63.39160
G1 X46.086 Y33.705 E63.40508
G1 X55.170 Y42.789 E63.78677
G1 X55.675 Y42.789 E63.80179
G1 X46.536 Y33.650 E64.18581
G1 X46.986 Y33.594 E64.19928
G1 X56.181 Y42.789 E64.58563
G1 X56.686 Y42.789 E64.60065
G1 X47.428 Y33.531 E64.98966
G1 X47.859 Y33.457 E65.00265
G1 X57.191 Y42.789 E65.39479
G1 X57.697 Y42.789 E65.40980
G1 X48.290 Y33.382 E65.80508
G1 X48.721 Y33.307 E65.81807
G1 X58.202 Y42.789 E66.21648
G1 X58.707 Y42.789 E66.23150
G1 X49.151 Y33.233 E66.63304
G1 X49.582 Y33.158 E66.64603
G1 X59.213 Y42.789 E67.05071
G1 X59.718 Y42.789 E67.06573
G1 X50.013 Y33.084 E67.47354
G1 X50.432 Y32.997 E67.48626
G1 X60.223 Y42.789 E67.89770
G1 X60.729 Y42.789 E67.91271
G1 X50.845 Y32.905 E68.32804
G1 X51.258 Y32.812 E68.34061
G1 X61.234 Y42.789 E68.75982
G1 X61.739 Y42.789 E68.77484
G1 X51.671 Y32.720 E69.19794
G1 X52.083 Y32.627 E69.21051
G1 X62.245 Y42.789 E69.63750
G1 X62.750 Y42.789 E69.65252
G1 X52.496 Y32.535 E70.08340
G1 X52.909 Y32.442 E70.09597
G1 X63.256 Y42.789 E70.53074
G1 X63.761 Y42.789 E70.54575
G1 X53.311 Y32.338 E70.98488
G1 X53.706 Y32.229 E70.99709
G1 X64.266 Y42.789 E71.44081
G1 X64.772 Y42.789 E71.45583
G1 X54.102 Y32.120 E71.90415
G1 X54.498 Y32.010 E71.91636
G1 X65.277 Y42.789 E72.36928
G1 X65.782 Y42.789 E72.38429
G1 X54.894 Y31.901 E72.84181
G1 X55.290 Y31.791 E72.85402
G1 X66.288 Y42.789 E73.31613
G1 X66.793 Y42.789 E73.33115
G1 X55.686 Y31.682 E73.79786
G1 X56.075 Y31.565 E73.80992
G1 X67.298 Y42.789 E74.28154
G1 X67.804 Y42.789 E74.29655
G1 X56.455 Y31.440 E74.77343
G1 X56.835 Y31.315 E74.78532
G1 X68.309 Y42.789 E75.26747
G1 X68.814 Y42.789 E75.28248
G1 X57.215 Y31.189 E75.76990
G1 X57.595 Y31.064 E75.78179
G1 X69.320 Y42.789 E76.27447
G1 X69.825 Y42.789 E76.28948
G1 X57.975 Y30.939 E76.78742
G1 X58.355 Y30.813 E76.79931
G1 X70.331 Y42.789 E77.30252
G1 X70.836 Y42.789 E77.31754
G1 X58.734 Y30.687 E77.82608
G1 X59.099 Y30.546 E77.83769
G1 X71.341 Y42.789 E78.35213
G1 X71.847 Y42.789 E78.36715
G1 X59.464 Y30.406 E78.88749
G1 X59.828 Y30.265 E78.89911
G1 X72.352 Y42.789 E79.42535
G1 X72.857 Y42.789 E79.44037
G1 X60.193 Y30.125 E79.97251
G1 X60.558 Y29.984 E79.98413
G1 X73.363 Y42.789 E80.52218
G1 X73.868 Y42.789 E80.53719
G1 X60.923 Y29.844 E81.08114
G1 X61.288 Y29.703 E81.09276
G1 X74.373 Y42.789 E81.64261
G1 X74.879 Y42.789 E81.65763
G1 X61.645 Y29.555 E82.21373
G1 X61.995 Y29.400 E82.22511
G1 X75.384 Y42.789 E82.78772
G1 X75.889 Y42.789 E82.80274
G1 X62.346 Y29.245 E83.37186
G1 X62.696 Y29.090 E83.38324
G1 X76.395 Y42.789 E83.95887
G1 X76.900 Y42.789 E83.97389
G1 X63.046 Y28.935 E84.55603
G1 X63.397 Y28.780 E84.56742
G1 X77.405 Y42.789 E85.15607
G1 X77.911 Y42.789 E85.17109
G1 X63.747 Y28.625 E85.76625
G1 X64.098 Y28.470 E85.77764
G1 X78.416 Y42.789 E86.37931
G1 X78.922 Y42.789 E86.39433
G1 X64.436 Y28.303 E87.00301
G1 X64.773 Y28.134 E87.01419
G1 X79.427 Y42.789 E87.62997
G1 X79.932 Y42.789 E87.64499
G1 X65.109 Y27.966 E88.26786
G1 X65.445 Y27.797 E88.27905
G1 X80.438 Y42.789 E88.90903
G1 X80.943 Y42.789 E88.92404
G1 X65.782 Y27.628 E89.56112
G1 X66.118 Y27.459 E89.57231
G1 X81.448 Y42.789 E90.21649
G1 X81.954 Y42.789 E90.23150
G1 X66.455 Y27.290 E90.88278
G1 X66.882 Y27.211 E90.89568
G1 X82.459 Y42.789 E91.55025
G1 X82.964 Y42.789 E91.56527
G1 X67.387 Y27.211 E92.21984
G1 X67.892 Y27.211 E92.23485
G1 X83.470 Y42.789 E92.88943
G1 X83.975 Y42.789 E92.90444
